X:1
T:Hunter's House, The
R:reel
C:Ed Reavy (1898-1988)
D:Music at Matt Molloy's
Z:id:hn-reel-127
M:C|
K:G
Bd~d2 cAFA|G2BG DGBG|Bd~d2 cAFA|GBAG FGEF|
DG~G2 BG~G2|BGAF GABc|defg agfd|cAFA G3A:|
|:B2gB aBgB|~B2gf edcB|Aa~a2 baaf|dfaf gfed|
~B2gB aBgB|~B2gf edcB|cBAg fgaf|gdBd cAFA:|

